static/images/footer/facebook.svg

<svg width="36" height="36" viewBox="0 0 36 36" fill="none" xmlns="http://www.w3.org/2000/svg">
<path d="M7.5 4.5H28.5C29.2956 4.5 30.0587 4.81607 30.6213 5.37868C31.1839 5.94129 31.5 6.70435 31.5 7.5V28.5C31.5 29.2956 31.1839 30.0587 30.6213 30.6213C30.0587 31.1839 29.2956 31.5 28.5 31.5H7.5C6.70435 31.5 5.94129 31.1839 5.37868 30.6213C4.81607 30.0587 4.5 29.2956 4.5 28.5V7.5C4.5 6.70435 4.81607 5.94129 5.37868 5.37868C5.94129 4.81607 6.70435 4.5 7.5 4.5ZM27 7.5H23.25C21.8576 7.5 20.5223 8.05312 19.5377 9.03769C18.5531 10.0223 18 11.3576 18 12.75V16.5H15V21H18V31.5H22.5V21H27V16.5H22.5V13.5C22.5 13.1022 22.658 12.7206 22.9393 12.4393C23.2206 12.158 23.6022 12 24 12H27V7.5Z" fill="white"/>
</svg>

<svg width="36" height="36" fill="none" xmlns="http://www.w3.org/2000/svg"><path d="M7.5 4.5h21a3 3 0 013 3v21a3 3 0 01-3 3h-21a3 3 0 01-3-3v-21a3 3 0 013-3zm19.5 3h-3.75A5.25 5.25 0 0018 12.75v3.75h-3V21h3v10.5h4.5V21H27v-4.5h-4.5v-3A1.5 1.5 0 0124 12h3V7.5z" fill="#fff"/></svg>
